public/assets/techs/mongoose.svg

<svg width="20" height="20" viewBox="0 0 20 20" fill="none" xmlns="http://www.w3.org/2000/svg">
<g clip-path="url(#clip0_310_20)">
<path d="M19.9052 8.04309C19.6585 7.79641 18.3882 6.5659 17.6026 6.5659C17.1756 6.5659 16.6478 6.76875 16.1371 6.96496C15.7808 7.10184 15.3768 7.25707 15.1836 7.25707H13.4977C13.2535 7.19454 12.0539 6.91149 10.3456 6.91149C8.92271 6.91149 7.5597 7.83098 6.2415 8.72016C5.18224 9.43473 4.08685 10.1736 3.02857 10.3728C0.729548 10.8056 0.13572 11.4481 0.075564 11.5199C-0.00521725 11.6164 -0.0227954 11.7509 0.0304078 11.865C0.0837281 11.9789 0.198142 12.0518 0.323962 12.0518H3.68205C4.49088 12.0518 5.27443 11.762 5.88853 11.2356L7.13127 10.1704L7.18681 10.2816L6.31521 11.1532C6.25447 11.2139 6.22037 11.2963 6.22037 11.3822V12.7154C6.22037 13.1117 6.54275 13.4341 6.939 13.4341H7.23549C7.41443 13.4341 7.55947 13.289 7.55947 13.1101C7.55947 12.9312 7.41447 12.7861 7.23549 12.7861H6.939C6.90006 12.7861 6.86834 12.7544 6.86834 12.7154V12.001C7.27244 11.912 8.03377 11.67 8.82392 11.0292L8.64463 12.0154C8.62959 12.098 8.64728 12.1832 8.69385 12.2531L9.24193 13.0751C9.39174 13.2999 9.6424 13.434 9.91248 13.434H10.1297C10.3086 13.434 10.4537 13.289 10.4537 13.11C10.4537 12.9311 10.3087 12.7861 10.1297 12.7861H9.91248C9.85951 12.7861 9.81045 12.7598 9.78107 12.7157L9.55892 12.3825L10.7559 10.9329C11.6192 10.8968 12.4522 10.8352 13.0643 10.745C12.9662 11.196 12.8099 11.6062 12.8079 11.6114C12.7936 11.6486 12.7863 11.688 12.7863 11.7277V12.7853C12.7863 13.143 13.0773 13.434 13.435 13.434H13.8014C13.9804 13.434 14.1254 13.2889 14.1254 13.11C14.1254 12.9311 13.9804 12.786 13.8014 12.786L13.4342 12.7853V11.8679C13.7493 11.5855 14.1689 11.2112 14.5831 10.8451L15.6724 12.0215L15.8322 12.8209C15.9032 13.1761 16.2177 13.4339 16.5799 13.4339H16.9116C17.0906 13.4339 17.2356 13.2889 17.2356 13.1099C17.2356 12.931 17.0906 12.7859 16.9116 12.7859H16.5799C16.5255 12.7859 16.4783 12.7472 16.4676 12.6938L15.8737 9.72438C15.9579 9.65442 16.0244 9.60079 16.0671 9.56942C16.4154 9.31282 17.2858 8.94153 17.9483 8.94153H18.985C19.0353 8.94153 19.0849 8.92981 19.1299 8.90731L19.821 8.56172C19.9142 8.51516 19.9792 8.42664 19.996 8.32383C20.0125 8.22125 19.9788 8.11672 19.9052 8.04309ZM9.38263 11.5784L9.49365 10.9677C9.62545 10.9659 9.75869 10.9635 9.89279 10.9605L9.38263 11.5784ZM15.0695 10.4171C15.152 10.3448 15.2323 10.2747 15.3094 10.2077L15.429 10.8053L15.0695 10.4171ZM18.9085 8.29375H17.9482C17.1811 8.29375 16.1749 8.68528 15.6826 9.04805C15.4199 9.24157 14.4413 10.1036 13.7263 10.739C13.7491 10.6177 13.7674 10.4948 13.7784 10.3749C13.7878 10.2717 13.7472 10.1702 13.6693 10.1019C13.5914 10.0336 13.4856 10.0068 13.3844 10.0295C12.6117 10.204 10.9723 10.2965 9.55049 10.3186C9.67611 10.1716 9.79986 10.0125 9.92029 9.83957C10.0225 9.69274 9.98642 9.49086 9.83963 9.38856C9.69271 9.28621 9.49084 9.32243 9.38861 9.46922C8.87353 10.2087 8.23471 10.7589 7.48986 11.1047C7.36303 11.1636 7.2442 11.2108 7.13549 11.2492L7.81013 10.5746C7.90869 10.476 7.93322 10.3254 7.8708 10.2007L7.52521 9.50954C7.48064 9.42028 7.39736 9.35657 7.29955 9.33684C7.2017 9.31707 7.10033 9.34348 7.02459 9.4084L5.46681 10.7436C4.97013 11.1694 4.33627 11.4039 3.68205 11.4039H1.61888C1.99529 11.2716 2.49435 11.1327 3.14853 11.0096C4.3383 10.7856 5.49006 10.0087 6.60392 9.25731C7.8983 8.38414 9.12091 7.55942 10.3456 7.55942C12.1313 7.55942 13.3577 7.89004 13.3696 7.89332C13.3977 7.90106 13.4267 7.905 13.4558 7.905H15.1836C15.497 7.905 15.9013 7.74965 16.3695 7.56981C16.4725 7.53024 16.5788 7.48942 16.6851 7.45016C16.7215 7.70778 16.896 7.9259 17.1608 8.04039C17.2028 8.05848 17.2464 8.06707 17.2893 8.06707C17.4146 8.06707 17.5339 7.99395 17.5868 7.87161C17.6579 7.70739 17.5823 7.51664 17.4181 7.44563C17.3777 7.42817 17.3289 7.39809 17.3261 7.35391C17.3239 7.32016 17.345 7.27059 17.3948 7.23567C17.4703 7.22184 17.5404 7.21375 17.6027 7.21375C17.8885 7.21375 18.5471 7.67688 19.1173 8.18926L18.9085 8.29375Z" fill="#EEEEEE"/>
</g>
<defs>
<clipPath id="clip0_310_20">
<rect width="20" height="20" fill="white"/>
</clipPath>
</defs>
</svg>

<svg xmlns="http://www.w3.org/2000/svg" width="20" height="20" fill="none" xmlns:v="https://vecta.io/nano"><g clip-path="url(#A)"><path d="M19.905 8.043c-.247-.247-1.517-1.477-2.303-1.477-.427 0-.955.203-1.465.399-.356.137-.76.292-.953.292h-1.686c-.244-.063-1.444-.346-3.152-.346-1.423 0-2.786.919-4.104 1.809-1.059.715-2.155 1.453-3.213 1.653C.73 10.806.136 11.448.076 11.52c-.081.097-.098.231-.045.345s.168.187.294.187h3.358a3.39 3.39 0 0 0 2.206-.816l1.243-1.065.056.111-.872.872c-.061.061-.095.143-.095.229v1.333a.72.72 0 0 0 .719.719h.296c.179 0 .324-.145.324-.324s-.145-.324-.324-.324h-.296c-.039 0-.071-.032-.071-.071v-.714c.404-.089 1.165-.331 1.956-.972l-.179.986c-.015.083.003.168.049.238l.548.822c.15.225.4.359.671.359h.217c.179 0 .324-.145.324-.324s-.145-.324-.324-.324h-.217c-.053 0-.102-.026-.131-.07l-.222-.333 1.197-1.45 2.308-.188a6.8 6.8 0 0 1-.256.866c-.014.037-.022.077-.022.116v1.058a.65.65 0 0 0 .649.649h.366c.179 0 .324-.145.324-.324s-.145-.324-.324-.324l-.367-.001v-.917l1.149-1.023 1.089 1.176.16.799c.071.355.386.613.748.613h.332c.179 0 .324-.145.324-.324s-.145-.324-.324-.324h-.332c-.054 0-.102-.039-.112-.092l-.594-2.969.193-.155c.348-.257 1.219-.628 1.881-.628h1.037c.05 0 .1-.012.145-.034l.691-.346c.093-.047.158-.135.175-.238s-.017-.207-.091-.281zM9.383 11.578l.111-.611.399-.007-.51.618zm5.687-1.161l.24-.209.12.598-.36-.388zm3.839-2.123h-.96c-.767 0-1.773.392-2.266.754-.263.194-1.241 1.056-1.956 1.691l.052-.364c.009-.103-.031-.205-.109-.273s-.184-.095-.285-.072c-.773.175-2.412.267-3.834.289l.37-.479c.102-.147.066-.349-.081-.451s-.349-.066-.451.081c-.515.739-1.154 1.29-1.899 1.635l-.354.145.675-.675c.099-.099.123-.249.061-.374l-.346-.691c-.045-.089-.128-.153-.226-.173s-.199.007-.275.072l-1.558 1.335c-.497.426-1.131.66-1.785.66H1.619c.376-.132.875-.271 1.53-.394 1.19-.224 2.342-1.001 3.455-1.752 1.294-.873 2.517-1.698 3.742-1.698 1.786 0 3.012.331 3.024.334.028.008.057.012.086.012h1.728c.313 0 .718-.155 1.186-.335l.316-.12c.036.258.211.476.476.59.042.018.086.027.129.027.125 0 .245-.073.297-.195.071-.164-.005-.355-.169-.426-.04-.017-.089-.048-.092-.092-.002-.034.019-.083.069-.118.075-.014.146-.022.208-.022.286 0 .944.463 1.515.976l-.209.104z" fill="#810303"/></g><defs><clipPath id="A"><path fill="#fff" d="M0 0h20v20H0z"/></clipPath></defs></svg>
